X:1
T:Times Square, 87.87 D
T:Times Square, 87.87 D
T:Frank Marion Davis, 1879
T:Public Domain Courtesy of the Cyber Hymnal™
C:Frank Marion Davis, 1879
Z:Public Domain
Z:Courtesy of the Cyber Hymnal™
%%score ( 1 2 ) ( 3 4 )
L:1/8
Q:1/4=110
M:9/8
K:E
V:1 treble 
V:2 treble 
V:3 bass 
V:4 bass 
V:1
 [EG]2 [FA] | [GB]3 [GB]3 ([Ac][GB])[^^F^A] | [GB]3 [EG]3 E2 [EF] | [EG]3- [EG]2 [EA] (GF)E | %4
 [DF]6 [EG]2 [FA] | [GB]3 [GB]3 ([Ac][GB])[^^F^A] | [GB]3 [EG]3 E2 [EG] | %7
 [GB]3- [GB]2 [FA] [EG]2 [DF] | E6 ([EG][FA])[GB] | [Ac]3 [Ac]3 ([ce][Bd])[Ac] | %10
 [GB]3 [EG]3 [AB]2 [Bc] | [AB]3- [AB]2 [AB] [Ac]2 [AB] | [GB]6 ([EG][FA])[GB] | %13
 [Ac]3 [Ac]3 ([ce][Bd])[Ac] | [GB]3 [EG]3 E2 [EG] | [GB]3- [GB]2 [FA] [EG]2 [DF] | E6 |] %17
V:2
 x3 | x9 | x6 E2 x | x6 E2 E | x9 | x9 | x6 E2 x | x9 | E6 x3 | x9 | x9 | x9 | x9 | x9 | x6 E2 x | %15
 x9 | E6 |] %17
V:3
 [E,B,]2 [E,B,] | [E,E]3 [E,E]3 [E,E]2 [E,E] | [E,E]3 [E,B,]3 [E,G,]2 [E,A,] | %3
 [E,B,]3- [E,B,]2 [E,C] (B,A,)[E,G,] | [B,,A,]6 [E,B,]2 [E,B,] | [E,E]3 [E,E]3 [E,E]2 [E,E] | %6
 [E,E]3 [E,B,]3 [E,G,]2 [E,B,] | [E,E]3- [E,E]2 [A,,C] [B,,B,]2 [B,,A,] | [E,G,]6 [E,B,]2 [E,E] | %9
 [A,E]3 [A,E]3 [A,E]2 [A,E] | [E,E]3 [E,B,]3 [B,D]2 [B,D] | [B,D]3- [B,D]2 [B,D] [B,D]2 [B,D] | %12
 [E,E]6 [E,B,]2 [E,E] | [A,E]3 [A,E]3 [A,E]2 [A,E] | [E,E]3 [E,B,]3 [E,G,]2 [E,B,] | %15
 [E,E]3- [E,E]2 [A,,C] [B,,B,]2 [B,,A,] | [E,G,]6 |] %17
V:4
 x3 | x9 | x9 | x6 E,2 x | x9 | x9 | x9 | x9 | x9 | x9 | x9 | x9 | x9 | x9 | x9 | x9 | x6 |] %17

